X:1
T:Blaenwern, 87.87 D
T:Blaenwern, 87.87 D
T:Williams Penfro Rowlands, 1905
T:Public Domain Courtesy of the Cyber Hymnal™
C:Williams Penfro Rowlands, 1905
Z:Public Domain
Z:Courtesy of the Cyber Hymnal™
%%score ( 1 2 ) ( 3 4 )
L:1/8
Q:1/4=130
M:6/4
K:F
V:1 treble 
V:2 treble 
V:3 bass 
V:4 bass 
V:1
 [A,C]4 [A,C]2 [B,D]4 [B,D]2 | [A,C]2 [CF]2 [CA]2 [CA]4 [CG]2 | F4 [^CE]2 D4 [A,=C]2 | %3
 [G,C]2 [CE]2 [=B,D]2 C6 | [A,C]4 [A,C]2 [B,D]4 [B,D]2 | [A,C]2 [CF]2 [CA]2 [CA]4 [CG]2 | %6
 F4 [EG]2 A2 B2 [DG]2 | [CF]4 [CE]2 [CF]6 | [CA]4 [^CA]2 (A2 F2) [FA]2 | B2 A2 [EG]2 [FA]4 [FA]2 | %10
 [Fc]4 [Ec]2 (c2 A2) [Gc]2 | [Fd]2 [Ec]2 =B2 [Ec]6 | [FB]4 [EB]2 [Fc]4 [FA]2 | %13
 (c2 B2) [FA]2 [FA]4 [EG]2 | F4 [EG]2 (A2 B2) [DG]2 | [CF]4 [CE]2 [CF]6 |] %16
V:2
 x12 | x12 | (A,2 D2) D4 x4 | x6 C6 | x12 | x12 | (A,2 D2) F4 x4 | x12 | x6 D4 x2 | F4 x8 | %10
 x6 F4 x2 | x4 (DF) x6 | x12 | G4 x8 | F4 F4 x4 | x12 |] %16
V:3
 [F,,F,]4 [F,,F,]2 [F,,F,]4 [F,,F,]2 | (F,2 A,2) [F,,F,]2 [C,F,]4 [C,E,]2 | %2
 (F,2 A,2) [A,,G,]2 [B,,F,]4 [F,,F,]2 | (E,2 G,2) [G,,F,]2 [C,E,]6 | %4
 [F,,F,]4 [F,,F,]2 [B,,F,]4 [B,,F,]2 | (F,2 A,2) [F,,F,]2 [C,F,]4 [C,E,]2 | %6
 (F,2 A,2) [C,C]2 [F,C]2 [B,,D]2 [B,,B,]2 | [C,A,]4 (G,B,) [F,A,]6 | %8
 [F,A,]4 [E,G,]2 (F,2 A,2) [C,C]2 | [B,,D]2 [C,C]2 [C,C]2 [F,C]4 [F,C]2 | %10
 [A,C]4 [G,B,]2 (A,2 C2) [E,G,]2 | [D,A,]2 G,2 [G,,G,]2 [C,G,]6 | B,4 [G,B,]2 A,4 [F,C]2 | %13
 [E,C]4 [F,C]2 [C,C]4 [C,C]2 | [A,C]2 [B,D]2 [G,B,]2 [F,C]2 [D,F,]2 [B,,G,]2 | %15
 [C,A,]4 (G,B,) [F,,A,]6 |] %16
V:4
 x12 | F,,4 x8 | D,4 x8 | G,,4 x8 | x12 | F,,4 x8 | D,4 x8 | x4 C,2 x6 | x6 D,4 x2 | x12 | %10
 x6 F,4 x2 | x2 G,2 x8 | B,4 A,4 x4 | x12 | x12 | x4 C,2 x6 |] %16

